X: 37695
T: Soaring Eagle, The
R: reel
M: 4/4
K: Bminor
M:1/8
A|Bfed edc B2BA|~B3d cBA ~B3A|
Bfed edc B2BA|1 ~B3d cBA F2FF:|2 ~B3d cBA F2Fd||
M:7/8
|:efge fed|e2dc BcA|d2B2 BcA|ABBA B2d|
efga fed|e2dc BcA|d2B2 BcA|1 ABBA B2d:|2 ABBA B2||

